X: 09023
T: DALE'S HORNPIPE
C: Bob McQuillen 23 Sept 92
B: Bob's Note Book 9 #23
%R: hornpipe, reel
Z: 2019 John Chambers <jc:trillian.mit.edu>
M: C
L: 1/8
K: G
BA \
| GABc d2Bd | edce d2ef | g2d2 dedc | BdBG A2BA |
| GABc d2Bd | edce d2ef | gfed cAdc | B2G2 G2 :|
|: gf \
| e2ef gage | dBde d2gf | edef geag | f2d2 d2Bd |
| cBcd efgd | cBcd efge | dgfa gedc | B2G2 G2 :|
%%begintext align
%% Dale Thomas is a good friend
%% of long standing, and it's always such a pleasure to
%% see him every year at the New England Folk Festival. He
%% is a man of many talents, and one thing he knows how to
%% do real well is make a good cup of coffee!  I've been
%% thankful to you for a long while, Dale, and I'm glad
%% this tune came along to tell you so.
%%endtext

%%sep 1 1 500

%%sep 1 1 500

